X:405
T: Wayside Waggon
S: "Roche Collection of Traditional Irish Music" [III/23/74]
L: 1/8
M: 4/4
R: reel
K: Bb
B2 bg fdcB | AFcF dFcF | B2 bg fdcB |1 ABce dB B2 :|2\
GABc dB B2 ||
BGFE DEFD | c2 c=B cGGA | BGFE DEFD | B,BBc dBBF |
BGFE DEFD | c2 c=B cGGA | BGFE DEFD | B,2 Bc dB Bz ||
P: transposed to G
K: G
G2 ge dBAG | FDAD BDAD | G2 ge dBAG |1 FGAc BG G2 :|2\
EFGA BG G2 ||
GEDC B,CDB, | A2 A^G AEEF | GEDC B,CDB, | G,GGA BGGD |
GEDC B,CDB, | A2 A^G AEEF | GEDC B,CDB, | G,2 GA BG Gz ||
